svgs/light/hospital.svg

<svg xmlns="http://www.w3.org/2000/svg" viewBox="0 0 640 512"><!--! Font Awesome Pro 6.6.0 by @fontawesome - https://fontawesome.com License - https://fontawesome.com/license (Commercial License) Copyright 2024 Fonticons, Inc. --><path d="M160 64c0-35.3 28.7-64 64-64L416 0c35.3 0 64 28.7 64 64l0 32 96 0c35.3 0 64 28.7 64 64l0 288c0 35.3-28.7 64-64 64l-160 0s0 0 0 0l-64 0-64 0-64 0s0 0 0 0L64 512c-35.3 0-64-28.7-64-64L0 160c0-35.3 28.7-64 64-64l96 0 0-32zM480 336l0 144 96 0c17.7 0 32-14.3 32-32l0-128-80 0c-8.8 0-16-7.2-16-16s7.2-16 16-16l80 0 0-64-80 0c-8.8 0-16-7.2-16-16s7.2-16 16-16l80 0 0-32c0-17.7-14.3-32-32-32l-96 0 0 208zM160 128l-96 0c-17.7 0-32 14.3-32 32l0 32 80 0c8.8 0 16 7.2 16 16s-7.2 16-16 16l-80 0 0 64 80 0c8.8 0 16 7.2 16 16s-7.2 16-16 16l-80 0 0 128c0 17.7 14.3 32 32 32l96 0 0-352zM448 336l0-272c0-17.7-14.3-32-32-32L224 32c-17.7 0-32 14.3-32 32l0 416 64 0 0-64c0-35.3 28.7-64 64-64s64 28.7 64 64l0 64 64 0 0-144zm-96 80c0-17.7-14.3-32-32-32s-32 14.3-32 32l0 64 64 0 0-64zM304 64l32 0c13.3 0 24 10.7 24 24l0 16 16 0c13.3 0 24 10.7 24 24l0 32c0 13.3-10.7 24-24 24l-16 0 0 16c0 13.3-10.7 24-24 24l-32 0c-13.3 0-24-10.7-24-24l0-16-16 0c-13.3 0-24-10.7-24-24l0-32c0-13.3 10.7-24 24-24l16 0 0-16c0-13.3 10.7-24 24-24zm8 56c0 8.8-7.2 16-16 16l-24 0 0 16 24 0c8.8 0 16 7.2 16 16l0 24 16 0 0-24c0-8.8 7.2-16 16-16l24 0 0-16-24 0c-8.8 0-16-7.2-16-16l0-24-16 0 0 24z"/></svg>

<svg xmlns="http://www.w3.org/2000/svg" viewBox="0 0 640 512"><!--! Font Awesome Pro 6.4.0 by @fontawesome - https://fontawesome.com License - https://fontawesome.com/license (Commercial License) Copyright 2023 Fonticons, Inc. --><path d="M160 64c0-35.3 28.7-64 64-64H416c35.3 0 64 28.7 64 64V96h96c35.3 0 64 28.7 64 64V448c0 35.3-28.7 64-64 64H416v0H352 288 224v0H64c-35.3 0-64-28.7-64-64V160c0-35.3 28.7-64 64-64h96V64zM480 336V480h96c17.7 0 32-14.3 32-32V320H528c-8.8 0-16-7.2-16-16s7.2-16 16-16h80V224H528c-8.8 0-16-7.2-16-16s7.2-16 16-16h80V160c0-17.7-14.3-32-32-32H480V336zM160 128H64c-17.7 0-32 14.3-32 32v32h80c8.8 0 16 7.2 16 16s-7.2 16-16 16H32v64h80c8.8 0 16 7.2 16 16s-7.2 16-16 16H32V448c0 17.7 14.3 32 32 32h96V128zM448 336V64c0-17.7-14.3-32-32-32H224c-17.7 0-32 14.3-32 32V480h64V416c0-35.3 28.7-64 64-64s64 28.7 64 64v64h64V336zm-96 80c0-17.7-14.3-32-32-32s-32 14.3-32 32v64h64V416zM304 64h32c13.3 0 24 10.7 24 24v16h16c13.3 0 24 10.7 24 24v32c0 13.3-10.7 24-24 24H360v16c0 13.3-10.7 24-24 24H304c-13.3 0-24-10.7-24-24V184H264c-13.3 0-24-10.7-24-24V128c0-13.3 10.7-24 24-24h16V88c0-13.3 10.7-24 24-24zm8 56c0 8.8-7.2 16-16 16H272v16h24c8.8 0 16 7.2 16 16v24h16V168c0-8.8 7.2-16 16-16h24V136H344c-8.8 0-16-7.2-16-16V96H312v24z"/></svg>
